X:18
T:Ah Spring
C:Chris Thile
A:Stealing Second
N:Arranged by Mike Stangeland
R:bluegrass
L:1/8
Q:1/4=200
M:4/4
K:G
z6 ef |: "G"ga bg de gd | Bc dB GA BG | "Am"Ac ea EA ce | A,C EA D"D"F Ad | "G"ga bg de gd | 
Bc dB GA BG | "Am"Ac ea EA ce | DF AB cB AF |1 "G"GE FA G3g :|2 "G"GE FA G2 gf | 
|: "Em"e2 d[ee] e2 ef | gf ed "C"ce cB | cB AG "Am"EA ED | ED CE "D"DF Ad | "Em"e2 d[ee] e2 ef | 
gf ed "C"ce cB | cB AG "Am"ED CE | "D"DF AB cB AF |1 "G"GE FA Ge gf :|2 "G"GE FA G4 | 

